img/js-logo.svg

<svg width="30" height="31" viewBox="0 0 30 31" fill="none" xmlns="http://www.w3.org/2000/svg">
<g clip-path="url(#clip0_85_9898)">
<path d="M0 0.5H30V30.5H0V0.5Z" fill="#F7DF1E"/>
<path d="M7.88818 25.5702L10.1839 24.1808C10.6269 24.9661 11.0297 25.6305 11.9962 25.6305C12.9226 25.6305 13.5067 25.2682 13.5067 23.8586V14.2729H16.3259V23.8985C16.3259 26.8185 14.6143 28.1476 12.117 28.1476C9.86173 28.1476 8.55263 26.9796 7.88806 25.5699M17.8572 25.2681L20.1527 23.939C20.757 24.9259 21.5424 25.6508 22.9318 25.6508C24.1 25.6508 24.8449 25.0667 24.8449 24.2612C24.8449 23.2946 24.0796 22.9522 22.7908 22.3885L22.0861 22.0862C20.0521 21.2205 18.7029 20.133 18.7029 17.8373C18.7029 15.7228 20.3139 14.1117 22.8312 14.1117C24.6235 14.1117 25.9123 14.7361 26.8386 16.3672L24.6434 17.777C24.16 16.9111 23.6367 16.5688 22.8311 16.5688C22.0054 16.5688 21.4818 17.0924 21.4818 17.777C21.4818 18.6227 22.0054 18.9652 23.2136 19.4888L23.9184 19.7908C26.3149 20.818 27.664 21.8651 27.664 24.221C27.664 26.7586 25.6704 28.1479 22.9921 28.1479C20.3743 28.1479 18.6827 26.8994 17.8571 25.2682" fill="black"/>
</g>
<defs>
<clipPath id="clip0_85_9898">
<rect width="30" height="30" fill="white" transform="translate(0 0.5)"/>
</clipPath>
</defs>
</svg>

<svg xmlns="http://www.w3.org/2000/svg" width="30" height="31" fill="none"><g clip-path="url(#a)"><path fill="#F7DF1E" d="M0 .5h30v30H0V.5Z"/><path fill="#000" d="m7.888 25.57 2.296-1.39c.443.786.846 1.45 1.812 1.45.927 0 1.51-.362 1.51-1.771v-9.586h2.82v9.625c0 2.92-1.712 4.25-4.209 4.25-2.255 0-3.564-1.168-4.229-2.578m9.97-.302 2.295-1.329c.604.987 1.39 1.712 2.779 1.712 1.168 0 1.913-.584 1.913-1.39 0-.966-.765-1.309-2.054-1.872l-.705-.303c-2.034-.865-3.383-1.953-3.383-4.249 0-2.114 1.61-3.725 4.128-3.725 1.793 0 3.081.624 4.008 2.255l-2.196 1.41c-.483-.866-1.006-1.208-1.812-1.208-.826 0-1.35.523-1.35 1.208 0 .846.524 1.188 1.733 1.712l.704.302c2.397 1.027 3.746 2.074 3.746 4.43 0 2.538-1.994 3.927-4.672 3.927-2.618 0-4.31-1.249-5.135-2.88"/></g><defs><clipPath id="a"><path fill="#fff" d="M0 .5h30v30H0z"/></clipPath></defs></svg>
